X: 24
T:Sligo Maid
B:Dave Bulmer
M:C
L:1/8
K:G
A2 BA Bdef| gedB AGEF| ~G2 BG dGBG| DEGA BAdB| 
A2 BA Bdef| gedB AGEG| ~B3 G (3AAA GE | DEGA BA A2 :|
|: eaag ~a2 ga| bgaf gfed| eggf ~g2 ge| dega bgag| 
eaag ~a2 ga| bgaf gfed| eg ~g2 edBc| dBgB BA A2 :|
